Adwaita++-Light/panel/22/smartphoneattention.svg

<svg height="22" width="22" xmlns="http://www.w3.org/2000/svg">
  <path d="m7 3c-1 0-1 1-1 1v14s0 1 1 1h7v-4h-6v-9h6v4h2v-6s0-1-1-1zm3.5 13h1s.5 0 .5.5v1s0 .5-.5.5h-1s-.5 0-.5-.5v-1s0-.5.5-.5z" fill="#444"/>
  <path d="m15 11v4l.25 2h1.5l.25-2v-4zm0 7v2h2v-2z" fill="#4285f4"/>
</svg>

<svg xmlns="http://www.w3.org/2000/svg" width="22" height="22" version="1.1">
 <defs>
  <style id="current-color-scheme" type="text/css">
   .ColorScheme-Text { color:#444444; } .ColorScheme-Highlight { color:#4285f4; }
  </style>
 </defs>
 <path style="fill:currentColor" class="ColorScheme-Text" d="M 7,3 C 6,3 6,4 6,4 V 18 C 6,18 6,19 7,19 H 14 V 15 H 8 V 6 L 14,6 V 10 H 16 V 4 C 16,4 16,3 15,3 Z M 10.5,16 H 11.5 C 11.5,16 12,16 12,16.5 V 17.5 C 12,17.5 12,18 11.5,18 H 10.5 C 10.5,18 10,18 10,17.5 V 16.5 C 10,16.5 10,16 10.5,16 Z"/>
 <path style="fill:currentColor" class="ColorScheme-Highlight" d="M 15,11 V 15 L 15.25,17 H 16.75 L 17,15 V 11 Z M 15,18 V 20 H 17 V 18 Z"/>
</svg>
